X: 05091
T: Lady Susan Stewart's Reel
B: RSCDS 5-9(a)
N: Arr. T. Traub 9-30-95
R: Reel
M: 4/4
L: 1/8
K: Am
e \
|: "Am"A2 eg "D"fdec | "Am"A2 eg "G"BGdB | "Am"Aeeg fdeg | "D"fedg "G"BGdB :| 
|: "Am"A2 a2 "D"fdec | "Am"A2 a2 "G"BGdB | "Am"A2 a2 fdeg | "D"fedg "G"BGdB :| 
